!!!COM: Palestrina, Giovanni Perluigi da
!!!OPR: Missa De feria
!!!OTL: Agnus I
**kern	**kern	**kern	**kern
*Ibass	*Itenor	*Icalto	*Icant
!Bassus	!Tenor	!Altus	!Cantus
*clefF4	*clefGv2	*clefG2	*clefG2
*k[]	*k[]	*k[]	*k[]
*E:phr	*E:phr	*E:phr	*E:phr
*M4/2	*M4/2	*M4/2	*M4/2
=1	=1	=1	=1
0r	0r	0e	0r
=2	=2	=2	=2
0r	0r	1e	1r
.	.	2.f	[1a
.	.	4e	.
=3	=3	=3	=3
0r	0r	4d	1a]
.	.	4c	.
.	.	1d	.
.	.	.	1a
.	.	4c	.
.	.	4B	.
=4	=4	=4	=4
1r	0r	1A	2.cc
.	.	.	4b
[1A	.	2.c	4a
.	.	.	4g
.	.	.	[2a
.	.	4d	.
=5	=5	=5	=5
1A]	0r	1e	2a]
.	.	.	4g
.	.	.	4f
1A	.	2c	2e
.	.	2f	[2a
=6	=6	=6	=6
2.c	0r	2.e	2a]
.	.	.	2g
4B	.	4d	.
4A	.	4c	2f
4G	.	4B	.
[2A	.	[2c	4e
.	.	.	4d
=7	=7	=7	=7
2A]	0r	2c]	2e
4G	.	4B	1a
4F	.	4A	.
1E	.	1B	.
.	.	.	2g#
=8	=8	=8	=8
2.F	0A	2A	0a
.	.	2c	.
4E	.	.	.
4D	.	2d	.
4C	.	.	.
[2D	.	[2f	.
=9	=9	=9	=9
2D]	1A	2f]	0r
4C	.	4e	.
4BB	.	4d	.
[1AA	2.c	2.e	.
.	4B	4d	.
=10	=10	=10	=10
1AA]	4A	4c	0e
.	4G	4B	.
.	1A	1c	.
1r	.	.	.
.	4G	4B	.
.	4F	4A	.
=11	=11	=11	=11
1r	2E	2B	1e
.	1e	1c	.
[1E	.	.	2.g
.	4d	4B	.
.	4c	4A	4f
=12	=12	=12	=12
0E]	2B	2G	4e
.	.	.	4d
.	1c	2E	1e
.	.	[1e	.
.	4B	.	4d
.	4A	.	4c
=13	=13	=13	=13
1E	1G#	1e]	1B
2.F	[1A	1c	1A
4E	.	.	.
=14	=14	=14	=14
4D	1A]	2d	1a
4C	.	.	.
1D	.	1f	.
.	1d	.	1a
4C	.	4e	.
4BB	.	4d	.
=15	=15	=15	=15
2AA	2c	1e	2.cc
2A	2.e	.	.
.	.	.	4b
1A	.	1c	4a
.	4d	.	4g
.	[2c	.	[2a
=16	=16	=16	=16
2F	2c]	1d	2a]
2G	2B	.	4g
.	.	.	4f
2.A	1c	2r	2e
.	.	2c	[2a
4G	.	.	.
=17	=17	=17	=17
2F	0r	1c	2a]
2C	.	.	2g
1D	.	2A	1f
.	.	2B	.
=18	=18	=18	=18
1C	1r	1c	2.e
.	.	.	4f
2r	1e	1c	2g
2c	.	.	2a
=19	=19	=19	=19
1c	1e	0r	2g
.	.	.	1cc
2A	2c	.	.
2B	2d	.	4b
.	.	.	4a
=20	=20	=20	=20
2.c	2.e	2r	1g
.	.	2e	.
4B	4d	.	.
2A	2c	1e	1r
2E	2B	.	.
=21	=21	=21	=21
1F	1A	2c	1r
.	.	2d	.
[1C	1G	2.e	2r
.	.	.	2g
.	.	4d	.
=22	=22	=22	=22
1C]	2r	2c	1g
.	2c	2G	.
1r	2c	1A	2e
.	2A	.	2f
=23	=23	=23	=23
0r	2B	2.E	2.g
.	1c	.	.
.	.	4F	4f
.	.	[1G	2e
.	2B	.	2d
=24	=24	=24	=24
1C	2.c	1G]	2e
.	.	.	2.g
.	8B	.	.
.	8A	.	.
1C	2G	1r	.
.	.	.	4f
.	2A	.	[2e
=25	=25	=25	=25
2AA	1F	0r	2e]
2BB	.	.	2d
4C	4E	.	[1e
4D	4F	.	.
4E	4G	.	.
4F	4A	.	.
=26	=26	=26	=26
2G	2B	2r	1e]
2.A	2.c	2e	.
.	.	1e	1r
4G	4B	.	.
2E	2G	.	.
=27	=27	=27	=27
1F	1A	2c	1r
.	.	2d	.
1E	1B	2.e	[1g
.	.	4d	.
=28	=28	=28	=28
1r	1E	2c	2g]
.	.	2B	2g
[1C	1r	1c	1g
=29	=29	=29	=29
2C]	2r	1G	2.e
2C	1c	.	.
.	.	.	4f
2E	.	1r	2g
[2F	2c	.	2a
=30	=30	=30	=30
4F]	1c	0r	2g
4E	.	.	.
2C	.	.	1g
1D	2.A	.	.
.	.	.	2f
.	4B	.	.
=31	=31	=31	=31
2C	2c	1.g	2e
2BB	2.d	.	2d
1C	.	.	1e
.	4c	.	.
.	[2c	2g	.
=32	=32	=32	=32
1G	2c]	1g	1d
.	2B	.	.
2r	2c	2.e	1c
[2c	[2e	.	.
.	.	4f	.
=33	=33	=33	=33
2c]	2e]	4g	2r
.	.	4a	.
2c	2e	2.g	1cc
1c	1e	.	.
.	.	4f	.
.	.	4e	2cc
.	.	4d	.
=34	=34	=34	=34
2.A	2c	2e	1cc
.	1A	4c	.
4B	.	4d	.
2c	.	4e	1a
.	.	4c	.
[2d	2F	[2f	.
=35	=35	=35	=35
4d]	0G	2f]	2r
4c	.	.	.
1c	.	2e	1g
.	.	1d	.
2B	.	.	2g
=36	=36	=36	=36
1c	2r	1e	1g
.	1c	.	.
2.C	.	2r	2.e
.	2c	[2e	.
4D	.	.	4f
=37	=37	=37	=37
0E	2B	2e]	2g
.	2A	2e	1a
.	1B	1e	.
.	.	.	2g#
=38	=38	=38	=38
2r	2A	2.c	1a
1A	1c	.	.
.	.	4d	.
.	.	2e	2r
2A	2c	[2f	[2a
=39	=39	=39	=39
1A	1c	4f]	2a]
.	.	4e	.
.	.	1e	2a
1F	1A	.	1a
.	.	2d	.
=40	=40	=40	=40
2.E	2r	1e	2.g
.	1e	.	.
4F	.	.	4a
2G	.	1r	2b
[2A	2e	.	[2cc
=41	=41	=41	=41
4A]	1e	0r	2cc]
4G	.	.	.
2E	.	.	2b
1F	2.c	.	1a
.	4d	.	.
=42	=42	=42	=42
2E	2e	1r	2g#
1D	2.f	.	2.a
.	.	[1A	.
.	4e	.	4g
2C#	[2e	.	2e
=43	=43	=43	=43
1D	2e]	2A]	2.f
.	2d	2A	.
.	.	.	8e
.	.	.	8d
2.AA	1e	1A	2c
.	.	.	[2cc
4BB	.	.	.
=44	=44	=44	=44
4C	2.e	2.G	2cc]
4D	.	.	.
4E	.	.	1b
4F	4d	4A	.
2G	2e	2B	.
[2A	[2f	[2c	[2a
=45	=45	=45	=45
4A]	4f]	4c]	2a]
4G	4e	4B	.
2E	1e	1B	2g#
1F	.	.	1a
.	2d	2A	.
=46	=46	=46	=46
0E	0e	0B	0g#
==	==	==	==
*-	*-	*-	*-
!!!CDT: 1525/^1526/-1594/2/2
!!!OCY: Italia
!!!AGN: Mass (Paraphrase)
!!!AST: renaissance, vocal
!!!ASW: Gregorian Mass
!!!PWK: Masses, Book 3
!!!RNB: Cadence finals: A
!!!YOR: Le Opere Complete, v. 6, p. 84
!!!YOO: Rome, Italy: Fratelli Scalera
!!!END: 1992//
!!!EED: John Miller
!!!YEC: Copyright 2000, John Miller
!!!YEN: United States of America
!!!YEM: Rights to all derivative electronic formats reserved.
!!!YEM: Refer to licensing agreement for further details.
!!!YEM: This file must be accompanied by the licensing agreement.
!!!YEM: A copy of the licensing agreement may be found at http://www.music-cog.ohio-state.edu/HumdrumDatabases/Palestrina/license.txt
!!!EMD: converted to Humdrum by Bret Aarden
